X:105
M:3/4
L:1/8
Q:1/4=140
K:A Minor
E2|A6|B2 B4|c4 B>A|B2 ~^G2 E2|B2 B4|c4 B>A|c>B B4|
c4 B>A|A3 G e2|A3 B c2|B2 ~^G2 E2|A4 A^G|e4 g2|d2 B2 ~A2|
(A4||A2)|(B3 A B2)|g6|B3 A G2|E2 E4|B3 A B2|g6|B4 ~d2|e4 g/^f/g/a/|
b3 a g2|ge e4|B3 A G2|GE E4|A4 A^G|e4 g2|d2 B2 ~A2|A4||BA|

